src/assets/icons/letters,fancy,serif-x.svg

<svg width="48" height="48" viewBox="0 0 48 48" fill="none" xmlns="http://www.w3.org/2000/svg">
<path d="M35.4825 32.782C36.1159 33.6433 36.8505 34.3147 37.6865 34.796C38.5479 35.252 39.4979 35.48 40.5365 35.48V37H26.3625V35.48C26.9959 35.48 27.5025 35.4547 27.8825 35.404C28.2879 35.3533 28.5919 35.29 28.7945 35.214C29.0225 35.138 29.1619 35.0367 29.2125 34.91C29.2885 34.7833 29.3265 34.644 29.3265 34.492C29.3265 34.34 29.2885 34.188 29.2125 34.036C29.1619 33.8587 29.0605 33.6433 28.9085 33.39C28.7565 33.1367 28.5539 32.82 28.3005 32.44C28.0472 32.06 27.7179 31.5913 27.3125 31.034L23.2465 25.258L20.6245 28.488C20.0672 29.172 19.5225 29.8053 18.9905 30.388C18.4839 30.9707 18.0152 31.5153 17.5845 32.022C17.1792 32.5287 16.8499 32.9847 16.5965 33.39C16.3432 33.77 16.2165 34.112 16.2165 34.416C16.2165 34.8213 16.4699 35.1 16.9765 35.252C17.4832 35.404 18.3192 35.48 19.4845 35.48V37H7.81853V35.48C8.50253 35.48 9.0852 35.4547 9.56653 35.404C10.0732 35.328 10.5165 35.2013 10.8965 35.024C11.3019 34.8467 11.6692 34.606 11.9985 34.302C12.3532 33.9727 12.7459 33.5547 13.1765 33.048L21.4985 22.902L12.6445 11.426C11.9605 10.5393 11.2765 9.95667 10.5925 9.678C9.90853 9.39933 9.13586 9.26 8.27453 9.26V7.74H22.5625V9.26C21.6505 9.26 20.9919 9.374 20.5865 9.602C20.1812 9.83 19.9785 10.172 19.9785 10.628C19.9785 11.312 20.3585 12.1607 21.1185 13.174L25.0325 18.57L29.9345 12.718C30.3145 12.262 30.5805 11.8567 30.7325 11.502C30.9099 11.122 30.9985 10.7673 30.9985 10.438C30.9985 10.2607 30.9605 10.096 30.8845 9.944C30.8085 9.792 30.6565 9.66533 30.4285 9.564C30.2259 9.46267 29.9219 9.38667 29.5165 9.336C29.1112 9.28533 28.5792 9.26 27.9205 9.26V7.74H39.2445V9.26C38.1805 9.26 37.3572 9.336 36.7745 9.488C36.1919 9.64 35.7105 9.944 35.3305 10.4L26.8565 20.888L35.4825 32.782Z" fill="black"/>
</svg>

<svg xmlns="http://www.w3.org/2000/svg" width="48" height="48" fill="none" viewBox="0 0 48 48">
  <path fill="#000" d="M35.483 32.782c.633.861 1.367 1.533 2.204 2.014.86.456 1.81.684 2.85.684V37H26.362v-1.52c.633 0 1.14-.025 1.52-.076.405-.05.709-.114.912-.19.227-.076.367-.177.417-.304a.797.797 0 00.114-.418c0-.152-.038-.304-.114-.456a2.833 2.833 0 00-.303-.646c-.152-.253-.355-.57-.608-.95-.254-.38-.583-.849-.988-1.406l-4.066-5.776-2.622 3.23a44.637 44.637 0 01-1.634 1.9c-.507.583-.976 1.127-1.407 1.634a14.81 14.81 0 00-.988 1.368c-.253.38-.38.722-.38 1.026 0 .405.254.684.76.836.507.152 1.343.228 2.509.228V37H7.819v-1.52c.684 0 1.266-.025 1.748-.076.506-.076.95-.203 1.33-.38a3.945 3.945 0 001.101-.722c.355-.33.748-.747 1.179-1.254l8.322-10.146-8.854-11.476c-.684-.887-1.368-1.47-2.053-1.748-.683-.279-1.456-.418-2.317-.418V7.74h14.287v1.52c-.912 0-1.57.114-1.976.342-.405.228-.607.57-.607 1.026 0 .684.38 1.533 1.14 2.546l3.913 5.396 4.902-5.852c.38-.456.646-.861.799-1.216.177-.38.265-.735.265-1.064a1.09 1.09 0 00-.114-.494c-.076-.152-.227-.279-.456-.38-.202-.101-.506-.177-.912-.228-.405-.05-.937-.076-1.595-.076V7.74h11.324v1.52c-1.064 0-1.888.076-2.47.228a2.73 2.73 0 00-1.444.912l-8.475 10.488 8.627 11.894z"/>
</svg>
